Origami/32x32/apps/flowblade.svg

<svg width="32" height="32" version="1" xmlns="http://www.w3.org/2000/svg">
 <rect transform="matrix(0,-1,-1,0,0,0)" x="-31" y="-30" width="28" height="28" rx="1.4" ry="1.4" style="opacity:.2"/>
 <rect transform="matrix(0,-1,-1,0,0,0)" x="-30" y="-30" width="28" height="28" rx="1.4" ry="1.4" style="fill:#4f4f4f"/>
 <path d="m4 5v3h3v-3h-3zm21 0v3h3v-3h-3zm-21 7v3h3v-3h-3zm21 0v3h3v-3h-3zm-21 7v3h3v-3h-3zm21 0v3h3v-3h-3zm-21 7v3h3v-3h-3zm21 0v3h3v-3h-3z" style="opacity:.2"/>
 <path d="m16 7h7s-4.487739 0.9568819-5 2.6190474c-0.386229 1.2532176 2.268431 2.2865756 2 3.5714296-0.321889 1.540729-3.680539 1.553981-4 3.095237-0.302383 1.458861 3.251228 2.578686 3 4.047619-0.264743 1.547953-3.971498 1.762253-4 3.333334-0.0275 1.516007 4 3.333333 4 3.333333h-10z" style="opacity:.2"/>
 <path d="m16 6h7s-4.487739 0.9568819-5 2.6190474c-0.386229 1.2532171 2.268431 2.2865756 2 3.5714296-0.321889 1.540729-3.680539 1.553981-4 3.095237-0.302383 1.458861 3.251228 2.578686 3 4.047619-0.264743 1.547953-3.971498 1.762253-4 3.333334-0.0275 1.516007 4 3.333333 4 3.333333h-10z" style="fill:#cccccc"/>
 <path d="m4 4v3h3v-3h-3zm21 0v3h3v-3h-3zm-21 7v3h3v-3h-3zm21 0v3h3v-3h-3zm-21 7v3h3v-3h-3zm21 0v3h3v-3h-3zm-21 7v3h3v-3h-3zm21 0v3h3v-3h-3z" style="fill:#989898"/>
 <path d="M 3.4003906 2 C 2.6247906 2 2 2.6247906 2 3.4003906 L 2 4.4003906 C 2 3.6247906 2.6247906 3 3.4003906 3 L 28.599609 3 C 29.375209 3 30 3.6247906 30 4.4003906 L 30 3.4003906 C 30 2.6247906 29.375209 2 28.599609 2 L 3.4003906 2 z" style="fill:#ffffff;opacity:.1"/>
</svg>

<svg xmlns="http://www.w3.org/2000/svg" width="32" height="32" version="1">
 <rect style="opacity:0.2" width="28" height="28" x="-31" y="-30" rx="1.4" ry="1.4" transform="matrix(0,-1,-1,0,0,0)"/>
 <rect style="fill:#4f4f4f" width="28" height="28" x="-30" y="-30" rx="1.4" ry="1.4" transform="matrix(0,-1,-1,0,0,0)"/>
 <path style="opacity:0.2" d="M 4,5 4,8 7,8 7,5 4,5 Z m 21,0 0,3 3,0 0,-3 -3,0 z m -21,7 0,3 3,0 0,-3 -3,0 z m 21,0 0,3 3,0 0,-3 -3,0 z m -21,7 0,3 3,0 0,-3 -3,0 z m 21,0 0,3 3,0 0,-3 -3,0 z m -21,7 0,3 3,0 0,-3 -3,0 z m 21,0 0,3 3,0 0,-3 -3,0 z"/>
 <path style="opacity:0.2" d="m 16,7 7,0 c 0,0 -4.487739,0.9568819 -5,2.6190474 -0.386229,1.2532176 2.268431,2.2865756 2,3.5714296 -0.321889,1.540729 -3.680539,1.553981 -4,3.095237 -0.302383,1.458861 3.251228,2.578686 3,4.047619 -0.264743,1.547953 -3.971498,1.762253 -4,3.333334 C 14.9725,25.182674 19,27 19,27 L 9,27 Z"/>
 <path style="fill:#cccccc" d="m 16,6 7,0 c 0,0 -4.487739,0.9568819 -5,2.6190474 -0.386229,1.2532171 2.268431,2.2865756 2,3.5714296 -0.321889,1.540729 -3.680539,1.553981 -4,3.095237 -0.302383,1.458861 3.251228,2.578686 3,4.047619 -0.264743,1.547953 -3.971498,1.762253 -4,3.333334 C 14.9725,24.182674 19,26 19,26 L 9,26 Z"/>
 <path style="fill:#989898" d="M 4 4 L 4 7 L 7 7 L 7 4 L 4 4 z M 25 4 L 25 7 L 28 7 L 28 4 L 25 4 z M 4 11 L 4 14 L 7 14 L 7 11 L 4 11 z M 25 11 L 25 14 L 28 14 L 28 11 L 25 11 z M 4 18 L 4 21 L 7 21 L 7 18 L 4 18 z M 25 18 L 25 21 L 28 21 L 28 18 L 25 18 z M 4 25 L 4 28 L 7 28 L 7 25 L 4 25 z M 25 25 L 25 28 L 28 28 L 28 25 L 25 25 z"/>
 <path style="fill:#ffffff;opacity:0.1" d="M 3.4003906 2 C 2.6247906 2 2 2.6247906 2 3.4003906 L 2 4.4003906 C 2 3.6247906 2.6247906 3 3.4003906 3 L 28.599609 3 C 29.375209 3 30 3.6247906 30 4.4003906 L 30 3.4003906 C 30 2.6247906 29.375209 2 28.599609 2 L 3.4003906 2 z"/>
</svg>
